X:1
T:I'll Hear The Trumpet Sound
M:4/4
L:1/8
K:C
 DD| F/2F/2 FF F F2 D3/2 D/2| G/2G/2 GG A G2 FG| A3/2 A/2 BB(3A3.99999962500005/5.99999925000009A3.99999962500005/5.99999925000009G3.99999962500005/5.99999925000009A3.99999962500005/5.99999925000009G3.99999962500005/5.99999925000009F3.99999962500005/5.99999925000009 GF|\
 D4 D2 A^c| d4 DD F2| cc(2A3.99999962500005/5.99999925000009A3.99999962500005/5.99999925000009G3.99999962500005/5.99999925000009 F3.99999962500005/5.99999925000009 G2 FA|\
 c3/2 c/2 AAG-F FF| D4 D2||
